X:1
T:Title
%%score ( 1 2 ) { 3 | 4 }
L:1/8
M:4/4
K:F
V:1 treble nm="Grand Piano, Unnamed-000"
V:2 treble 
V:3 bass nm="Choir Pad, Es ist ein' Ros"
V:4 bass 
V:1
 [Fc]4 [Fc]2 [Fc]2 | [Fd]2 [Fc]2 [Ec]4 | [DA]4 [DB]4 | A2 G4 D2 | F2- [C-F]2 C2 E2 | [CF]4 [Ac]4 | %6
w: By~15th~Century~German * *||||||
 [Ac]2 [Fc]2 [Fd]2 [Fc]2 | [Ec]4 [DA]4 | [DB]4 A2 G2- | G2 D2 F2- [C-F]2 | C2 E2 [CF]4- | %11
w: |||||
 [CF]2 [FA]2 [DG]2 [CE]2 | [CF]2 [=B,D]2 C4- | C2 [Ec]2 [Gc]2 [Fc]2 | [Fd]2 [Fc]2 [Ec]4 | %15
w: ||||
 [DA]4 [DB]4 | [FA]2 [DG]2 [CF]4 | [CE]2 [CF]6- | [CF]2 z2 z4 |] %19
w: ||||
V:2
 x8 | x8 | x8 | C4 z4 | A,2 z2 z4 | x8 | x8 | x8 | z4 C4 | z4 A,2 z2 | x8 | x8 | x8 | x8 | x8 | %15
 x8 | x8 | x8 | x8 |] %19
V:3
 A,4 A,2 A,2 | B,2 A,2 G,4 | F,4 F,4 | A,2 C2 B,2 A,2- | A,2 C,4 G,2 | A,4 C4 | C2 A,2 B,2 A,2 | %7
 G,4 F,4 | F,4 A,2 C2 | B,2 A,4 C,2- | C,2 G,2 A,4- | A,2 C2 B,2 A,2 | A,2 G,2 E,F, G,2- | %13
 G,2 G,2 G,2 A,2 | B,2 A,2 G,4 | ^F,4 G,4 | C2 B,2 A,4 | G,2 A,6- | A,2 z2 z4 |] %19
V:4
 F,4 F,2 F,2 | z2 F,2 C,4 | D,4 B,,4 | F,2 E,2 D,4 | z8 | F,4 F,4 | F,2 F,2 z2 F,2 | C,4 D,4 | %8
 B,,4 F,2 E,2 | D,4 z4 | z4 F,4- | F,2 A,2 G,2 z2 | F,2 z2 C,D, E,2- | E,2 C,2 E,2 F,2 | %14
 B,,2 F,2 C,4 | D,4 G,,4 | A,,2 B,,2 C,4 | C,2 F,6- | F,2 z2 z4 |] %19

